X:24
T:Bellisles March. JJo.024
T:Monck’s March,aka. JJo.024
S:J.Jones MS,1801,N.Shrops.
A:N Shropshire
Z:Neil Brookes 2006
M:4/4
L:1/8
Q:1/2=70
K:C
G2|c2c>e d2d>f|Te2c’>a{a}Tg3f|e2(3gec d2(3fdB|c2c>cc2::!
G2|g>agf e2e2|f>gfe{e}Td4|g>ag>f e>fe>f|g>a ag/f/ {e}d2G2|!
c2c>e d2d>f|Te2c’>a{a}Tg3f|e2(3gec d2(3fdB|c2c>cc2:|

